www/assets/images/test_icons/flags/LK.svg

<svg fill="none" height="15" viewBox="0 0 21 15" width="21" xmlns="http://www.w3.org/2000/svg" xmlns:xlink="http://www.w3.org/1999/xlink"><mask id="a" height="15" maskUnits="userSpaceOnUse" width="21" x="0" y="0"><path d="m19 0h-17c-1.10457 0-2 .89543-2 2v11c0 1.1046.89543 2 2 2h17c1.1046 0 2-.8954 2-2v-11c0-1.10457-.8954-2-2-2z" fill="#fff"/></mask><g mask="url(#a)"><path d="m19 0h-17c-1.10457 0-2 .89543-2 2v11c0 1.1046.89543 2 2 2h17c1.1046 0 2-.8954 2-2v-11c0-1.10457-.8954-2-2-2z" fill="#ffbf00"/><g clip-rule="evenodd" fill-rule="evenodd"><path d="m2 2h3v11h-3z" fill="#00614a"/><path d="m5 2h3v11h-3z" fill="#f60"/><path d="m9 2h10v11h-10z" fill="#98232e"/><path d="m12.535 10.616.058-.044.024.044c.033.06.124.058.184 0l.047-.047.04.045c.05.06.144.06.204 0 .044-.042.05-.043.078-.01.016.018.065.04.108.047.078.014.08.013.125-.078.04-.076.045-.106.036-.18-.006-.05-.013-.128-.015-.175-.002-.086-.002-.087.092-.13.05-.024.11-.056.133-.072.037-.026.14-.187.14-.22 0-.008-.04-.02-.09-.028-.195-.03-.228-.17-.1-.43.207-.422.332-.835.333-1.098 0-.117.005-.157.017-.13.046.103-.037.54-.163.855l-.05.127.048-.015c.026-.01.183-.097.347-.196.45-.27.605-.324.897-.308.244.014.348.077.52.318.092.127.18.218.34.352.344.286.358.31.374.646.017.34.01.36-.185.416-.165.048-.27.15-.297.293-.014.077.017.08.1.008l.06-.052.028.052c.036.07.112.07.175 0l.047-.05.048.05c.076.08.177.062.205-.04.005-.018.02-.012.05.022.055.064.196.092.212.04.006-.018-.006-.065-.025-.104-.082-.164-.108-.243-.11-.332 0-.124.027-.184.134-.286.13-.123.17-.28.072-.28-.06 0-.122-.073-.16-.19-.08-.235-.065-.5.054-.94.12-.45.134-.53.135-.83 0-.243-.003-.285-.045-.418-.025-.08-.077-.202-.114-.268l-.067-.12.087-.098c.267-.294.213-.776-.11-.96-.097-.058-.122-.063-.294-.06-.104 0-.26.018-.35.04-.092.02-.246.038-.352.038-.168 0-.196-.004-.26-.05-.068-.048-.08-.07-.093-.18-.002-.024-.014-.046-.026-.05-.023-.01-.13.11-.144.166-.008.026-.015.024-.037-.01-.015-.025-.036-.08-.047-.122-.027-.108.006-.19.1-.25l.075-.046-.042-.036c-.09-.074-.243-.024-.298.1-.016.033-.033.062-.038.062s-.035-.033-.066-.073c-.116-.15-.076-.374.08-.443.082-.036.155-.008.17.065.023.112.096-.035.083-.168-.01-.088-.01-.092.037-.092.064 0 .2.112.243.2.05.1.045.26-.01.378l-.04.093.054-.014c.08-.022.16-.09.2-.17.042-.086.047-.253.01-.344-.037-.087-.033-.1.02-.07.092.05.14.104.177.2.034.085.036.106.018.195-.01.055-.035.127-.054.16-.03.053-.03.062-.007.062.043 0 .135-.055.167-.1.016-.024.04-.08.053-.128l.023-.084.027.064c.038.09.11.173.2.224.097.056.137.06.087.008-.034-.035-.097-.28-.078-.303.01-.014.142.12.29.298.142.17.23.224.36.224.167 0 .263-.192.19-.373-.045-.106-.142-.12-.198-.03-.026.042-.033.075-.026.118.01.054.006.06-.03.06-.05 0-.144-.08-.312-.268-.257-.285-.57-.527-.795-.615-.145-.058-.454-.08-.6-.044-.16.038-.35.16-.452.29-.182.23-.184.535-.007.814l.05.08-.034.07c-.05.104-.046.243.01.345.025.045.05.082.056.082s.012-.03.014-.065c.005-.09.034-.15.084-.173.044-.022.073-.012.278.096.215.115.568.122.944.02.185-.048.402-.045.498.008.175.098.216.352.087.545-.056.082-.11.116-.29.182-.138.05-.17.054-.483.05-.267-.004-.363.003-.472.033-.118.033-.19.036-.538.025l-.402-.014.045.05c.024.026.06.06.077.073.03.022.03.025-.016.047-.027.014-.085.024-.13.024h-.083l-.01.094c-.006.052-.006.11 0 .133.01.033.007.037-.02.025-.016-.01-.064-.025-.106-.037s-.098-.035-.125-.053c-.046-.03-.05-.03-.068.01-.014.036-.154.174-.175.174-.003 0-.007-.027-.01-.06 0-.032-.02-.117-.044-.188-.022-.07-.046-.148-.052-.172-.01-.036-.013-.038-.025-.01-.007.017-.018.065-.024.107-.005.04-.026.11-.046.15l-.036.074-.023-.064c-.024-.068-.065-.14-.08-.14-.005 0-.014.023-.02.05-.01.055-.107.21-.13.21-.01 0-.017-.044-.017-.097 0-.054-.007-.097-.017-.097-.008 0-.016.013-.016.03 0 .04-.083.163-.11.163-.013 0-.032.014-.044.032-.03.046-.055.04-.043-.01.007-.025.003-.08-.008-.125l-.027-.105c-.004-.016-.033-.012-.096.015-.102.043-.136.036-.084-.02.02-.02.05-.088.065-.152.016-.064.04-.12.054-.127.018-.006.017.003-.005.042-.015.028-.028.066-.028.084s-.013.06-.027.095c-.014.036-.023.067-.02.07.004.005.042-.014.086-.042l.08-.05v.045c0 .025.01.09.02.146l.022.1.054-.033c.055-.034.108-.155.108-.248 0-.048.02-.04.028.01l.028.12.024.094.037-.06c.02-.033.047-.097.058-.143.02-.078.048-.112.048-.055 0 .042.086.19.102.178.008-.006.024-.062.035-.124.024-.13.062-.218.087-.2.01.008.012.02.007.03-.004.01.015.095.044.188.03.093.06.187.065.208.01.035.02.03.082-.043.04-.045.074-.095.078-.112.006-.024.015-.023.05.006.05.042.22.11.233.092.005-.006.01-.065.01-.13l.003-.12.05.013c.027.008.083.007.125 0l.076-.015-.067-.062c-.037-.034-.075-.078-.084-.098-.01-.02-.044-.04-.08-.043-.103-.012-.284-.147-.284-.21 0-.013.025.007.056.045.068.082.162.134.244.134h.062l-.038-.066c-.022-.04-.042-.112-.047-.173-.007-.095-.015-.11-.09-.18-.045-.042-.102-.105-.125-.14l-.042-.063-.022.075c-.012.042-.027.075-.032.075-.006 0-.03-.024-.05-.053-.023-.03-.046-.054-.05-.054-.007 0-.026.04-.045.09l-.033.087-.026-.05c-.015-.03-.048-.078-.075-.11-.027-.034-.042-.06-.032-.06s.044.034.075.075l.057.076.023-.056c.013-.032.018-.083.012-.124-.01-.06-.008-.062.01-.025.01.024.043.07.073.1l.054.06.037-.09c.037-.09.038-.09.054-.038.023.072.185.25.323.352.02.016.012-.04-.027-.165-.01-.033-.02-.093-.02-.133 0-.06-.012-.087-.07-.145-.082-.084-.108-.143-.124-.278-.006-.055-.02-.116-.032-.135-.017-.03-.02-.013-.015.088.002.07-.005.154-.016.19l-.02.064-.016-.054c-.01-.03-.047-.08-.085-.115-.04-.033-.065-.066-.06-.073.005-.006.045.024.087.068.065.067.08.074.088.045.01-.035 0-.186-.02-.29-.01-.054-.01-.054.04.01.036.05.055.106.07.206.02.127.03.15.118.25.053.063.1.11.102.106.004-.004.01-.164.015-.355.01-.365 0-.452-.067-.565l-.034-.058.053-.077c.07-.1.102-.18.116-.29l.012-.09-.06.077c-.05.062-.073.076-.13.076s-.08-.012-.117-.067c-.046-.065-.128-.127-.206-.158-.03-.01-.04-.006-.04.02 0 .02-.015.074-.035.122l-.035.088-.074-.098c-.046-.06-.1-.106-.14-.12-.103-.036-.108-.033-.108.07 0 .153-.05.182-.14.08-.067-.08-.124-.096-.253-.077l-.1.015.02.06c.014.05.01.07-.022.127-.052.092-.12.132-.224.132-.048 0-.108.013-.134.03-.025.015-.088.034-.14.04-.052.007-.107.02-.123.027-.024.012-.027.002-.02-.072.013-.114-.046-.197-.14-.197-.12 0-.175.143-.128.332.01.036.02.094.026.127.007.035.06.128.128.217.064.086.124.175.134.198s.043.06.073.082l.055.04-.007-.077c-.008-.086.006-.1.04-.04.013.023.044.058.07.08.04.032.047.033.047.004 0-.02.008-.06.018-.094l.02-.06.03.082c.018.045.076.148.128.23.102.155.164.33.132.37-.013.017-.048.015-.12-.004-.057-.014-.127-.022-.156-.017-.06.01-.063 0-.027-.06.038-.063.032-.073-.043-.073-.087 0-.302-.056-.385-.1-.08-.04-.1-.03-.123.07l-.043.185-.023.1.087-.01c.048-.007.11-.02.137-.032.028-.01.053-.016.056-.013.003.004-.01.044-.027.088l-.034.08.055-.014c.03-.008.075-.028.1-.044.044-.028.047-.026.082.047.042.09.076.087.083-.01.008-.098.033-.083.08.048.043.126.09.17.098.096.003-.024.026-.065.053-.09.053-.05.093-.034.115.044.025.08-.028.164-.18.288-.31.248-.488.588-.54 1.02-.046.39.098.794.387 1.084.138.14.358.285.344.23-.058-.238-.056-.69.004-.767.01-.012.006.035-.007.104-.048.258-.027.463.097.944.11.436.096.622-.062.744-.05.04-.084.046-.22.044-.148-.002-.164.002-.212.052-.046.05-.105.21-.105.284 0 .04.033.035.1-.016zm-1.12-.8c.016-.027.028-.07.028-.095 0-.038.013-.048.077-.06l.077-.014-.05-.055c-.062-.064-.068-.114-.014-.114.053 0 .144-.074.158-.13.007-.024.003-.058-.008-.076-.03-.045-.087-.038-.097.012-.012.054-.03.055-.073 0-.064-.08-.066-.248-.003-.346.028-.046.028-.05-.01-.096-.04-.052-.07-.153-.05-.177.006-.007.038 0 .07.014.048.02.067.022.086 0 .06-.06-.005-.14-.1-.122-.037.007-.052 0-.058-.026-.004-.02-.037-.047-.075-.06-.066-.022-.067-.02-.067.04 0 .067-.03.08-.083.037-.045-.035-.088-.008-.088.055 0 .058.045.087.124.08.06-.005.063.056.005.142l-.042.063.033.063c.05.093.045.248-.01.325l-.04.06-.028-.048c-.038-.067-.09-.062-.105.01-.01.047 0 .068.043.118.03.033.073.06.096.06.058 0 .056.06-.004.122l-.047.048.074.015c.04.008.072.024.072.035 0 .04.05.168.067.168.01 0 .03-.02.043-.047zm.253-2.17c.166-.097.18-.344.024-.41-.065-.026-.106-.01-.13.047-.02.045-.007.126.02.126.008 0 .015.014.015.032 0 .086-.253.125-.356.055-.036-.025-.05-.088-.02-.088.02 0 .037-.066.026-.112-.016-.062-.064-.084-.132-.06-.155.054-.15.296.007.4.13.083.414.088.548.01zm-.103-.19c.01-.01.006-.03-.01-.047-.035-.037-.033-.092.005-.155.03-.047.033-.117.043-.826.017-1.224.085-2.143.175-2.363.036-.088.03-.09-.062-.005-.12.108-.21.25-.29.45-.152.38-.205.892-.205 1.984 0 .62.004.7.03.76.026.054.027.075.01.134-.012.038-.017.075-.012.08.034.044.28.033.317-.013z" fill="#ffb700"/><path d="m10 3h1v1h-1zm7 0h1v1h-1zm-7 8h1v1h-1zm7 0h1v1h-1z" fill="#da8210"/></g><path d="m19 .5h-17c-.82843 0-1.5.67157-1.5 1.5v11c0 .8284.67157 1.5 1.5 1.5h17c.8284 0 1.5-.6716 1.5-1.5v-11c0-.82843-.6716-1.5-1.5-1.5z" stroke="#000" stroke-opacity=".1"/></g></svg>

<svg width="21" height="15" viewBox="0 0 21 15" fill="none" xmlns="http://www.w3.org/2000/svg">
<mask id="mask0_3_109" style="mask-type:alpha" maskUnits="userSpaceOnUse" x="0" y="0" width="21" height="15">
<path d="M19 0H2C0.89543 0 0 0.89543 0 2V13C0 14.1046 0.89543 15 2 15H19C20.1046 15 21 14.1046 21 13V2C21 0.89543 20.1046 0 19 0Z" fill="white"/>
</mask>
<g mask="url(#mask0_3_109)">
<path d="M19 0H2C0.89543 0 0 0.89543 0 2V13C0 14.1046 0.89543 15 2 15H19C20.1046 15 21 14.1046 21 13V2C21 0.89543 20.1046 0 19 0Z" fill="#FFBF00"/>
<path fill-rule="evenodd" clip-rule="evenodd" d="M2 2H5V13H2V2Z" fill="#00614A"/>
<path fill-rule="evenodd" clip-rule="evenodd" d="M5 2H8V13H5V2Z" fill="#FF6600"/>
<path fill-rule="evenodd" clip-rule="evenodd" d="M9 2H19V13H9V2Z" fill="#98232E"/>
<path fill-rule="evenodd" clip-rule="evenodd" d="M12.535 10.616L12.593 10.572L12.617 10.616C12.65 10.676 12.741 10.674 12.801 10.616L12.848 10.569L12.888 10.614C12.938 10.674 13.032 10.674 13.092 10.614C13.136 10.572 13.142 10.571 13.17 10.604C13.186 10.622 13.235 10.644 13.278 10.651C13.356 10.665 13.358 10.664 13.403 10.573C13.443 10.497 13.448 10.467 13.439 10.393C13.433 10.343 13.426 10.265 13.424 10.218C13.422 10.132 13.422 10.131 13.516 10.088C13.566 10.064 13.626 10.032 13.649 10.016C13.686 9.99 13.789 9.829 13.789 9.796C13.789 9.788 13.749 9.776 13.699 9.768C13.504 9.738 13.471 9.598 13.599 9.338C13.806 8.916 13.931 8.503 13.932 8.24C13.932 8.123 13.937 8.083 13.949 8.11C13.995 8.213 13.912 8.65 13.786 8.965L13.736 9.092L13.784 9.077C13.81 9.067 13.967 8.98 14.131 8.881C14.581 8.611 14.736 8.557 15.028 8.573C15.272 8.587 15.376 8.65 15.548 8.891C15.64 9.018 15.728 9.109 15.888 9.243C16.232 9.529 16.246 9.553 16.262 9.889C16.279 10.229 16.272 10.249 16.077 10.305C15.912 10.353 15.807 10.455 15.78 10.598C15.766 10.675 15.797 10.678 15.88 10.606L15.94 10.554L15.968 10.606C16.004 10.676 16.08 10.676 16.143 10.606L16.19 10.556L16.238 10.606C16.314 10.686 16.415 10.668 16.443 10.566C16.448 10.548 16.463 10.554 16.493 10.588C16.548 10.652 16.689 10.68 16.705 10.628C16.711 10.61 16.699 10.563 16.68 10.524C16.598 10.36 16.572 10.281 16.57 10.192C16.57 10.068 16.597 10.008 16.704 9.906C16.834 9.783 16.874 9.626 16.776 9.626C16.716 9.626 16.654 9.553 16.616 9.436C16.536 9.201 16.551 8.936 16.67 8.496C16.79 8.046 16.804 7.966 16.805 7.666C16.805 7.423 16.802 7.381 16.76 7.248C16.735 7.168 16.683 7.046 16.646 6.98L16.579 6.86L16.666 6.762C16.933 6.468 16.879 5.986 16.556 5.802C16.459 5.744 16.434 5.739 16.262 5.742C16.158 5.742 16.002 5.76 15.912 5.782C15.82 5.802 15.666 5.82 15.56 5.82C15.392 5.82 15.364 5.816 15.3 5.77C15.232 5.722 15.22 5.7 15.207 5.59C15.205 5.566 15.193 5.544 15.181 5.54C15.158 5.53 15.051 5.65 15.037 5.706C15.029 5.732 15.022 5.73 15 5.696C14.985 5.671 14.964 5.616 14.953 5.574C14.926 5.466 14.959 5.384 15.053 5.324L15.128 5.278L15.086 5.242C14.996 5.168 14.843 5.218 14.788 5.342C14.772 5.375 14.755 5.404 14.75 5.404C14.745 5.404 14.715 5.371 14.684 5.331C14.568 5.181 14.608 4.957 14.764 4.888C14.846 4.852 14.919 4.88 14.934 4.953C14.957 5.065 15.03 4.918 15.017 4.785C15.007 4.697 15.007 4.693 15.054 4.693C15.118 4.693 15.254 4.805 15.297 4.893C15.347 4.993 15.342 5.153 15.287 5.271L15.247 5.364L15.301 5.35C15.381 5.328 15.461 5.26 15.501 5.18C15.543 5.094 15.548 4.927 15.511 4.836C15.474 4.749 15.478 4.736 15.531 4.766C15.623 4.816 15.671 4.87 15.708 4.966C15.742 5.051 15.744 5.072 15.726 5.161C15.716 5.216 15.691 5.288 15.672 5.321C15.642 5.374 15.642 5.383 15.665 5.383C15.708 5.383 15.8 5.328 15.832 5.283C15.848 5.259 15.872 5.203 15.885 5.155L15.908 5.071L15.935 5.135C15.973 5.225 16.045 5.308 16.135 5.359C16.232 5.415 16.272 5.419 16.222 5.367C16.188 5.332 16.125 5.087 16.144 5.064C16.154 5.05 16.286 5.184 16.434 5.362C16.576 5.532 16.664 5.586 16.794 5.586C16.961 5.586 17.057 5.394 16.984 5.213C16.939 5.107 16.842 5.093 16.786 5.183C16.76 5.225 16.753 5.258 16.76 5.301C16.77 5.355 16.766 5.361 16.73 5.361C16.68 5.361 16.586 5.281 16.418 5.093C16.161 4.808 15.848 4.566 15.623 4.478C15.478 4.42 15.169 4.398 15.023 4.434C14.863 4.472 14.673 4.594 14.571 4.724C14.389 4.954 14.387 5.259 14.564 5.538L14.614 5.618L14.58 5.688C14.53 5.792 14.534 5.931 14.59 6.033C14.615 6.078 14.64 6.115 14.646 6.115C14.652 6.115 14.658 6.085 14.66 6.05C14.665 5.96 14.694 5.9 14.744 5.877C14.788 5.855 14.817 5.865 15.022 5.973C15.237 6.088 15.59 6.095 15.966 5.993C16.151 5.945 16.368 5.948 16.464 6.001C16.639 6.099 16.68 6.353 16.551 6.546C16.495 6.628 16.441 6.662 16.261 6.728C16.123 6.778 16.091 6.782 15.778 6.778C15.511 6.774 15.415 6.781 15.306 6.811C15.188 6.844 15.116 6.847 14.768 6.836L14.366 6.822L14.411 6.872C14.435 6.898 14.471 6.932 14.488 6.945C14.518 6.967 14.518 6.97 14.472 6.992C14.445 7.006 14.387 7.016 14.342 7.016H14.259L14.249 7.11C14.243 7.162 14.243 7.22 14.249 7.243C14.259 7.276 14.256 7.28 14.229 7.268C14.213 7.258 14.165 7.243 14.123 7.231C14.081 7.219 14.025 7.196 13.998 7.178C13.952 7.148 13.948 7.148 13.93 7.188C13.916 7.224 13.776 7.362 13.755 7.362C13.752 7.362 13.748 7.335 13.745 7.302C13.745 7.27 13.725 7.185 13.701 7.114C13.679 7.044 13.655 6.966 13.649 6.942C13.639 6.906 13.636 6.904 13.624 6.932C13.617 6.949 13.606 6.997 13.6 7.039C13.595 7.079 13.574 7.149 13.554 7.189L13.518 7.263L13.495 7.199C13.471 7.131 13.43 7.059 13.415 7.059C13.41 7.059 13.401 7.082 13.395 7.109C13.385 7.164 13.288 7.319 13.265 7.319C13.255 7.319 13.248 7.275 13.248 7.222C13.248 7.168 13.241 7.125 13.231 7.125C13.223 7.125 13.215 7.138 13.215 7.155C13.215 7.195 13.132 7.318 13.105 7.318C13.092 7.318 13.073 7.332 13.061 7.35C13.031 7.396 13.006 7.39 13.018 7.34C13.025 7.315 13.021 7.26 13.01 7.215L12.983 7.11C12.979 7.094 12.95 7.098 12.887 7.125C12.785 7.168 12.751 7.161 12.803 7.105C12.823 7.085 12.853 7.017 12.868 6.953C12.884 6.889 12.908 6.833 12.922 6.826C12.94 6.82 12.939 6.829 12.917 6.868C12.902 6.896 12.889 6.934 12.889 6.952C12.889 6.97 12.876 7.012 12.862 7.047C12.848 7.083 12.839 7.114 12.842 7.117C12.846 7.122 12.884 7.103 12.928 7.075L13.008 7.025V7.07C13.008 7.095 13.018 7.16 13.028 7.216L13.05 7.316L13.104 7.283C13.159 7.249 13.212 7.128 13.212 7.035C13.212 6.987 13.232 6.995 13.24 7.045L13.268 7.165L13.292 7.259L13.329 7.199C13.349 7.166 13.376 7.102 13.387 7.056C13.407 6.978 13.435 6.944 13.435 7.001C13.435 7.043 13.521 7.191 13.537 7.179C13.545 7.173 13.561 7.117 13.572 7.055C13.596 6.925 13.634 6.837 13.659 6.855C13.669 6.863 13.671 6.875 13.666 6.885C13.662 6.895 13.681 6.98 13.71 7.073C13.74 7.166 13.77 7.26 13.775 7.281C13.785 7.316 13.795 7.311 13.857 7.238C13.897 7.193 13.931 7.143 13.935 7.126C13.941 7.102 13.95 7.103 13.985 7.132C14.035 7.174 14.205 7.242 14.218 7.224C14.223 7.218 14.228 7.159 14.228 7.094L14.231 6.974L14.281 6.987C14.308 6.995 14.364 6.994 14.406 6.987L14.482 6.972L14.415 6.91C14.378 6.876 14.34 6.832 14.331 6.812C14.321 6.792 14.287 6.772 14.251 6.769C14.148 6.757 13.967 6.622 13.967 6.559C13.967 6.546 13.992 6.566 14.023 6.604C14.091 6.686 14.185 6.738 14.267 6.738H14.329L14.291 6.672C14.269 6.632 14.249 6.56 14.244 6.499C14.237 6.404 14.229 6.389 14.154 6.319C14.109 6.277 14.052 6.214 14.029 6.179L13.987 6.116L13.965 6.191C13.953 6.233 13.938 6.266 13.933 6.266C13.927 6.266 13.903 6.242 13.883 6.213C13.86 6.183 13.837 6.159 13.833 6.159C13.826 6.159 13.807 6.199 13.788 6.249L13.755 6.336L13.729 6.286C13.714 6.256 13.681 6.208 13.654 6.176C13.627 6.142 13.612 6.116 13.622 6.116C13.632 6.116 13.666 6.15 13.697 6.191L13.754 6.267L13.777 6.211C13.79 6.179 13.795 6.128 13.789 6.087C13.779 6.027 13.781 6.025 13.799 6.062C13.809 6.086 13.842 6.132 13.872 6.162L13.926 6.222L13.963 6.132C14 6.042 14.001 6.042 14.017 6.094C14.04 6.166 14.202 6.344 14.34 6.446C14.36 6.462 14.352 6.406 14.313 6.281C14.303 6.248 14.293 6.188 14.293 6.148C14.293 6.088 14.281 6.061 14.223 6.003C14.141 5.919 14.115 5.86 14.099 5.725C14.093 5.67 14.079 5.609 14.067 5.59C14.05 5.56 14.047 5.577 14.052 5.678C14.054 5.748 14.047 5.832 14.036 5.868L14.016 5.932L14 5.878C13.99 5.848 13.953 5.798 13.915 5.763C13.875 5.73 13.85 5.697 13.855 5.69C13.86 5.684 13.9 5.714 13.942 5.758C14.007 5.825 14.022 5.832 14.03 5.803C14.04 5.768 14.03 5.617 14.01 5.513C14 5.459 14 5.459 14.05 5.523C14.086 5.573 14.105 5.629 14.12 5.729C14.14 5.856 14.15 5.879 14.238 5.979C14.291 6.042 14.338 6.089 14.34 6.085C14.344 6.081 14.35 5.921 14.355 5.73C14.365 5.365 14.355 5.278 14.288 5.165L14.254 5.107L14.307 5.03C14.377 4.93 14.409 4.85 14.423 4.74L14.435 4.65L14.375 4.727C14.325 4.789 14.302 4.803 14.245 4.803C14.188 4.803 14.165 4.791 14.128 4.736C14.082 4.671 14 4.609 13.922 4.578C13.892 4.568 13.882 4.572 13.882 4.598C13.882 4.618 13.867 4.672 13.847 4.72L13.812 4.808L13.738 4.71C13.692 4.65 13.638 4.604 13.598 4.59C13.495 4.554 13.49 4.557 13.49 4.66C13.49 4.813 13.44 4.842 13.35 4.74C13.283 4.66 13.226 4.644 13.097 4.663L12.997 4.678L13.017 4.738C13.031 4.788 13.027 4.808 12.995 4.865C12.943 4.957 12.875 4.997 12.771 4.997C12.723 4.997 12.663 5.01 12.637 5.027C12.612 5.042 12.549 5.061 12.497 5.067C12.445 5.074 12.39 5.087 12.374 5.094C12.35 5.106 12.347 5.096 12.354 5.022C12.367 4.908 12.308 4.825 12.214 4.825C12.094 4.825 12.039 4.968 12.086 5.157C12.096 5.193 12.106 5.251 12.112 5.284C12.119 5.319 12.172 5.412 12.24 5.501C12.304 5.587 12.364 5.676 12.374 5.699C12.384 5.722 12.417 5.759 12.447 5.781L12.502 5.821L12.495 5.744C12.487 5.658 12.501 5.644 12.535 5.704C12.548 5.727 12.579 5.762 12.605 5.784C12.645 5.816 12.652 5.817 12.652 5.788C12.652 5.768 12.66 5.728 12.67 5.694L12.69 5.634L12.72 5.716C12.738 5.761 12.796 5.864 12.848 5.946C12.95 6.101 13.012 6.276 12.98 6.316C12.967 6.333 12.932 6.331 12.86 6.312C12.803 6.298 12.733 6.29 12.704 6.295C12.644 6.305 12.641 6.295 12.677 6.235C12.715 6.172 12.709 6.162 12.634 6.162C12.547 6.162 12.332 6.106 12.249 6.062C12.169 6.022 12.149 6.032 12.126 6.132L12.083 6.317L12.06 6.417L12.147 6.407C12.195 6.4 12.257 6.387 12.284 6.375C12.312 6.365 12.337 6.359 12.34 6.362C12.343 6.366 12.33 6.406 12.313 6.45L12.279 6.53L12.334 6.516C12.364 6.508 12.409 6.488 12.434 6.472C12.478 6.444 12.481 6.446 12.516 6.519C12.558 6.609 12.592 6.606 12.599 6.509C12.607 6.411 12.632 6.426 12.679 6.557C12.722 6.683 12.769 6.727 12.777 6.653C12.78 6.629 12.803 6.588 12.83 6.563C12.883 6.513 12.923 6.529 12.945 6.607C12.97 6.687 12.917 6.771 12.765 6.895C12.455 7.143 12.277 7.483 12.225 7.915C12.179 8.305 12.323 8.709 12.612 8.999C12.75 9.139 12.97 9.284 12.956 9.229C12.898 8.991 12.9 8.539 12.96 8.462C12.97 8.45 12.966 8.497 12.953 8.566C12.905 8.824 12.926 9.029 13.05 9.51C13.16 9.946 13.146 10.132 12.988 10.254C12.938 10.294 12.904 10.3 12.768 10.298C12.62 10.296 12.604 10.3 12.556 10.35C12.51 10.4 12.451 10.56 12.451 10.634C12.451 10.674 12.484 10.669 12.551 10.618L12.535 10.616ZM11.415 9.816C11.431 9.789 11.443 9.746 11.443 9.721C11.443 9.683 11.456 9.673 11.52 9.661L11.597 9.647L11.547 9.592C11.485 9.528 11.479 9.478 11.533 9.478C11.586 9.478 11.677 9.404 11.691 9.348C11.698 9.324 11.694 9.29 11.683 9.272C11.653 9.227 11.596 9.234 11.586 9.284C11.574 9.338 11.556 9.339 11.513 9.284C11.449 9.204 11.447 9.036 11.51 8.938C11.538 8.892 11.538 8.888 11.5 8.842C11.46 8.79 11.43 8.689 11.45 8.665C11.456 8.658 11.488 8.665 11.52 8.679C11.568 8.699 11.587 8.701 11.606 8.679C11.666 8.619 11.601 8.539 11.506 8.557C11.469 8.564 11.454 8.557 11.448 8.531C11.444 8.511 11.411 8.484 11.373 8.471C11.307 8.449 11.306 8.451 11.306 8.511C11.306 8.578 11.276 8.591 11.223 8.548C11.178 8.513 11.135 8.54 11.135 8.603C11.135 8.661 11.18 8.69 11.259 8.683C11.319 8.678 11.322 8.739 11.264 8.825L11.222 8.888L11.255 8.951C11.305 9.044 11.3 9.199 11.245 9.276L11.205 9.336L11.177 9.288C11.139 9.221 11.087 9.226 11.072 9.298C11.062 9.345 11.072 9.366 11.115 9.416C11.145 9.449 11.188 9.476 11.211 9.476C11.269 9.476 11.267 9.536 11.207 9.598L11.16 9.646L11.234 9.661C11.274 9.669 11.306 9.685 11.306 9.696C11.306 9.736 11.356 9.864 11.373 9.864C11.383 9.864 11.403 9.844 11.416 9.817L11.415 9.816ZM11.668 7.646C11.834 7.549 11.848 7.302 11.692 7.236C11.627 7.21 11.586 7.226 11.562 7.283C11.542 7.328 11.555 7.409 11.582 7.409C11.59 7.409 11.597 7.423 11.597 7.441C11.597 7.527 11.344 7.566 11.241 7.496C11.205 7.471 11.191 7.408 11.221 7.408C11.241 7.408 11.258 7.342 11.247 7.296C11.231 7.234 11.183 7.212 11.115 7.236C10.96 7.29 10.965 7.532 11.122 7.636C11.252 7.719 11.536 7.724 11.67 7.646H11.668ZM11.565 7.456C11.575 7.446 11.571 7.426 11.555 7.409C11.52 7.372 11.522 7.317 11.56 7.254C11.59 7.207 11.593 7.137 11.603 6.428C11.62 5.204 11.688 4.285 11.778 4.065C11.814 3.977 11.808 3.975 11.716 4.06C11.596 4.168 11.506 4.31 11.426 4.51C11.274 4.89 11.221 5.402 11.221 6.494C11.221 7.114 11.225 7.194 11.251 7.254C11.277 7.308 11.278 7.329 11.261 7.388C11.249 7.426 11.244 7.463 11.249 7.468C11.283 7.512 11.529 7.501 11.566 7.455L11.565 7.456Z" fill="#FFB700"/>
<path fill-rule="evenodd" clip-rule="evenodd" d="M10 3H11V4H10V3ZM17 3H18V4H17V3ZM10 11H11V12H10V11ZM17 11H18V12H17V11Z" fill="#DA8210"/>
<path d="M19 0.5H2C1.17157 0.5 0.5 1.17157 0.5 2V13C0.5 13.8284 1.17157 14.5 2 14.5H19C19.8284 14.5 20.5 13.8284 20.5 13V2C20.5 1.17157 19.8284 0.5 19 0.5Z" stroke="black" stroke-opacity="0.1"/>
</g>
</svg>
